img/icon-facebook.svg

<svg viewBox="0 0 51 50" fill="none" xmlns="http://www.w3.org/2000/svg">
<path d="M49.0021 25C49.0021 38.2536 38.2566 49 25.0042 49C11.7454 49 1 38.2534 1 25C1 11.7435 11.7453 1 25.0042 1C38.2566 1 49.0021 11.7434 49.0021 25Z" stroke="#C28767" stroke-width="2"/>
<path d="M20.827 40.625H27.3159V25.0105H31.6961L32.2633 19.4949H27.3159V16.2511C27.3159 15.0347 28.125 14.7496 28.6921 14.7496H32.1833V9.39394L27.3769 9.375C22.0402 9.375 20.827 13.3691 20.827 15.9238V19.4949H17.741V25.0105H20.827V40.625Z" fill="#C28767"/>
</svg>

<svg viewBox="0 0 51 50" fill="none" xmlns="http://www.w3.org/2000/svg"><path d="M49.002 25c0 13.254-10.745 24-23.998 24C11.745 49 1 38.253 1 25 1 11.743 11.745 1 25.004 1c13.253 0 23.998 10.743 23.998 24z" stroke="#C28767" stroke-width="2"/><path d="M20.827 40.625h6.489V25.011h4.38l.567-5.516h-4.947V16.25c0-1.216.809-1.501 1.376-1.501h3.491V9.394l-4.806-.019c-5.337 0-6.55 3.994-6.55 6.549v3.57h-3.086v5.517h3.086v15.614z" fill="#C28767"/></svg>
